assets/shop-tab/Asset/Blinkit.svg

<svg width="93" height="52" viewBox="0 0 93 52" fill="none" xmlns="http://www.w3.org/2000/svg">
<path fill-rule="evenodd" clip-rule="evenodd" d="M0 8C0 3.58172 3.58172 0 8 0H85C89.4183 0 93 3.58172 93 8V21.1C90.7178 21.5633 89 23.581 89 26C89 28.419 90.7178 30.4367 93 30.9V44C93 48.4183 89.4183 52 85 52H8C3.58172 52 0 48.4183 0 44V30.9C2.28224 30.4367 4 28.419 4 26C4 23.581 2.28224 21.5633 0 21.1V8Z" fill="#F8CB46"/>
<path d="M29.5099 23.3501C30.283 23.3501 30.9732 23.5369 31.5806 23.9107C32.1935 24.279 32.6739 24.8021 33.0217 25.4801C33.3585 26.1313 33.527 26.8973 33.527 27.7781C33.527 28.6323 33.3585 29.3956 33.0217 30.0683C32.6849 30.7408 32.21 31.2667 31.5971 31.6457C30.9787 32.0301 30.283 32.2222 29.5099 32.2222C28.9467 32.2222 28.4167 32.1101 27.9197 31.8859C27.4228 31.6618 26.9976 31.3468 26.6442 30.9411V32.022H23.7619V20.5555H26.6442V24.6232C26.9976 24.2175 27.4228 23.9052 27.9197 23.6863C28.4167 23.4622 28.9467 23.3501 29.5099 23.3501ZM28.6486 29.9081C29.0572 29.9081 29.4216 29.8174 29.7419 29.6359C30.0621 29.4544 30.3134 29.2008 30.4956 28.8752C30.6778 28.5549 30.7689 28.1892 30.7689 27.7781C30.7689 27.3777 30.6778 27.0147 30.4956 26.6891C30.3134 26.3635 30.0621 26.1099 29.7419 25.9284C29.4216 25.7469 29.0572 25.6562 28.6486 25.6562C28.2621 25.6562 27.917 25.7469 27.6133 25.9284C27.3096 26.1046 27.0721 26.3528 26.901 26.6732C26.7298 26.9988 26.6442 27.3671 26.6442 27.7781C26.6442 28.1892 26.7298 28.5575 26.901 28.8832C27.0721 29.2035 27.3096 29.4544 27.6133 29.6359C27.917 29.8174 28.2621 29.9081 28.6486 29.9081Z" fill="black"/>
<path d="M33.9215 32.022V20.5555H36.8039V32.022H33.9215Z" fill="black"/>
<path d="M37.6208 32.0216V23.5419H40.4866V32.0216H37.6208Z" fill="black"/>
<path d="M46.7123 23.3505C47.3252 23.3505 47.8773 23.4893 48.3688 23.7669C48.8601 24.0391 49.2467 24.4235 49.5283 24.9199C49.7988 25.4217 49.9341 25.9902 49.9341 26.6255V32.0223H47.1844V27.2501C47.1844 26.9404 47.1209 26.6656 46.9938 26.4253C46.8724 26.1797 46.6985 25.9902 46.4721 25.8567C46.2512 25.7234 45.9918 25.6566 45.6936 25.6566C45.4119 25.6566 45.1524 25.7234 44.915 25.8567C44.6776 25.9849 44.4925 26.1611 44.36 26.3853C44.222 26.5988 44.153 26.8497 44.153 27.138L44.1365 32.0223H41.2707V23.5426H44.1365V24.5115C44.407 24.1485 44.7686 23.8656 45.2214 23.6628C45.6742 23.4546 46.1712 23.3505 46.7123 23.3505Z" fill="black"/>
<path d="M56.2669 27.2497L59.5221 32.022H56.2669L54.362 29.0193L53.4841 30.0042V32.022H50.6018V20.5555H53.4841V26.8894L56.2505 23.5422H59.5054L56.2669 27.2497Z" fill="black"/>
<path d="M37.6193 20.5566H40.4943V22.7305H37.6193V20.5566Z" fill="black"/>
<path d="M59.9794 31.9962V23.5165H62.845V31.9962H59.9794Z" fill="#0C831F"/>
<path d="M68.9046 29.6026L69.4761 31.3883C69.2165 31.6285 68.8881 31.8234 68.4905 31.9728C68.0984 32.1223 67.7147 32.197 67.3392 32.197C66.7981 32.197 66.3148 32.0823 65.8898 31.8526C65.4645 31.6178 65.1332 31.2922 64.8958 30.8757C64.6584 30.4701 64.5397 30.0029 64.5397 29.4746V25.7352H63.3885V23.517H64.5397V20.5566H67.2894V23.517H69.1034V25.7352H67.2894V28.9621C67.2894 29.2343 67.364 29.4558 67.5131 29.6267C67.6621 29.7975 67.8527 29.8829 68.0846 29.8829C68.2503 29.8829 68.4048 29.8588 68.5485 29.8108C68.692 29.7628 68.8107 29.6934 68.9046 29.6026Z" fill="#0C831F"/>
<path d="M59.9568 20.5566H62.8319V22.7305H59.9568V20.5566Z" fill="#0C831F"/>
</svg>

<svg xmlns="http://www.w3.org/2000/svg" width="93" height="52" fill="none" viewBox="0 0 93 52"><path fill="#f8cb46" fill-rule="evenodd" d="M0 8a8 8 0 0 1 8-8h77a8 8 0 0 1 8 8v13.1a5.002 5.002 0 0 0 0 9.8V44a8 8 0 0 1-8 8H8a8 8 0 0 1-8-8V30.9a5.002 5.002 0 0 0 0-9.8z" clip-rule="evenodd"/><path fill="#000" d="M29.51 23.35q1.16 0 2.07.56a3.8 3.8 0 0 1 1.442 1.57q.505.977.505 2.298 0 1.282-.505 2.29a3.8 3.8 0 0 1-1.425 1.578 3.87 3.87 0 0 1-2.087.576 3.8 3.8 0 0 1-1.59-.336 3.7 3.7 0 0 1-1.276-.945v1.081h-2.882V20.556h2.882v4.067a3.6 3.6 0 0 1 1.276-.937 3.8 3.8 0 0 1 1.59-.336m-.861 6.558q.613 0 1.093-.272.48-.273.754-.76a2.2 2.2 0 0 0 .273-1.098q0-.6-.273-1.089a1.95 1.95 0 0 0-.754-.76 2.2 2.2 0 0 0-1.093-.273q-.58 0-1.036.272a1.85 1.85 0 0 0-.712.745 2.34 2.34 0 0 0-.257 1.105q0 .617.257 1.105.257.48.712.753.456.272 1.036.272m5.273 2.114V20.556h2.882v11.466zm3.698 0v-8.48h2.867v8.48zm9.092-8.672q.92 0 1.657.417.737.408 1.16 1.153.405.753.405 1.705v5.397h-2.75V27.25q0-.464-.19-.825a1.33 1.33 0 0 0-.522-.568q-.33-.2-.778-.2-.423 0-.779.2a1.4 1.4 0 0 0-.555.528 1.36 1.36 0 0 0-.207.753l-.017 4.884h-2.865v-8.48h2.865v.97q.407-.545 1.085-.85.68-.31 1.491-.311m9.555 3.899 3.255 4.772h-3.255l-1.905-3.003-.878.985v2.018h-2.882V20.556h2.882v6.333l2.767-3.347h3.254zM37.62 20.557h2.874v2.174H37.62z"/><path fill="#0c831f" d="M59.98 31.996v-8.48h2.865v8.48zm8.925-2.393.571 1.785q-.39.36-.986.585-.588.224-1.15.224a3 3 0 0 1-1.45-.344 2.53 2.53 0 0 1-.994-.977q-.357-.609-.356-1.401v-3.74h-1.152v-2.218h1.152v-2.96h2.75v2.96h1.813v2.218H67.29v3.227q0 .408.224.665.225.256.572.256.248 0 .464-.072a.9.9 0 0 0 .356-.208m-8.949-9.046h2.875v2.174h-2.875z"/></svg>
